usr/share/icons/biglinux-icons-material/scalable/apps/github.svg

<svg width="24" height="24" viewBox="0 0 24 24" fill="none" xmlns="http://www.w3.org/2000/svg">
<path fill-rule="evenodd" clip-rule="evenodd" d="M9.62336 1.3623C9.74184 1.36356 9.85509 1.34847 9.9631 1.31702C11.3825 1.22403 12.8019 1.22781 14.2212 1.32834C15.5081 1.42861 16.7538 1.70782 17.9584 2.16597C19.961 2.99043 21.3313 4.42045 22.0693 6.45602C22.4913 7.68156 22.7405 8.94179 22.8167 10.2367C22.9222 11.8627 22.8845 13.4852 22.7035 15.104C22.568 16.2418 22.2736 17.3361 21.8201 18.3866C20.9792 20.2082 19.6165 21.4646 17.7319 22.156C16.2048 22.672 14.6344 22.9437 13.0208 22.971C11.2058 23.0654 9.40891 22.9295 7.6302 22.5635C4.35625 21.8342 2.33666 19.8382 1.57145 16.5755C1.24671 15.1069 1.09949 13.6202 1.12978 12.1157C1.09354 10.5159 1.26341 8.93872 1.63939 7.3842C2.44158 4.33363 4.37811 2.44329 7.449 1.7132C8.16457 1.53826 8.88936 1.42129 9.62336 1.3623Z" fill="url(#paint0_radial_3_357)"/>
<path fill-rule="evenodd" clip-rule="evenodd" d="M15.2292 22.7801V19.412C15.2292 18.642 14.8779 18.0508 14.3341 17.6706C17.452 17.1872 19.7494 15.6108 19.7494 12.3506C19.7494 10.7556 19.2888 9.47832 18.5112 8.48967C18.8241 7.3704 18.789 6.23464 18.459 5.08654C17.3281 5.08654 16.0596 5.6998 15.2526 6.35842C14.2571 6.04903 13.157 5.89298 11.9987 5.89298C10.8382 5.89298 9.74163 6.0511 8.7544 6.36323C7.94589 5.70186 6.67608 5.08585 5.54379 5.08585C5.2083 6.25461 5.17186 7.40962 5.50254 8.5475C4.76554 9.52855 4.3331 10.786 4.3331 12.3494C4.3331 15.6095 6.57435 17.184 9.66805 17.6679C9.12285 18.0488 8.77223 18.6414 8.77223 19.4121C8.77223 19.4121 8.45255 19.6135 7.63785 19.6135C6.77847 19.6135 6.33846 19.4046 5.54439 18.4022C5.09958 17.8411 4.39213 17.1681 3.72043 17.0835C3.62596 17.0705 3.53014 17.071 3.43581 17.0849C3.32855 17.1014 3.22337 17.1358 3.12161 17.1928C2.91893 17.3049 3.09445 17.4441 3.41035 17.6946C3.84989 18.0431 4.56121 18.6071 4.90362 19.6135C5.34498 20.9108 6.7695 21.2278 7.96375 21.2278H8.77088V22.7691C8.37302 22.7102 7.97605 22.64 7.57997 22.5585C4.26839 21.8208 2.22559 19.8018 1.45158 16.5017C1.12311 15.0161 0.974197 13.5124 1.00483 11.9906C0.968174 10.3724 1.14 8.77709 1.5203 7.20471C2.33171 4.11908 4.2905 2.20701 7.39669 1.46852C8.12048 1.29157 8.8536 1.17326 9.59604 1.11359C9.71588 1.11486 9.83043 1.0996 9.93969 1.06779C11.3755 0.973736 12.8111 0.977551 14.2467 1.07924C15.5484 1.18066 16.8085 1.46308 18.0269 1.9265C20.0525 2.76044 21.4386 4.2069 22.185 6.26586C22.6119 7.50549 22.8639 8.78021 22.941 10.09C23.0478 11.7347 23.0096 13.3758 22.8265 15.0133C22.6895 16.1642 22.3916 17.271 21.933 18.3336C21.0824 20.1761 19.704 21.447 17.7978 22.1463C16.9546 22.4312 16.0984 22.6424 15.2292 22.7801Z" fill="url(#paint1_linear_3_357)"/>
<defs>
<radialGradient id="paint0_radial_3_357" cx="0" cy="0" r="1" gradientUnits="userSpaceOnUse" gradientTransform="translate(12 1.25) rotate(90) scale(21.75)">
<stop stop-color="#FAFAFA"/>
<stop offset="1" stop-color="#C0C0C0"/>
</radialGradient>
<linearGradient id="paint1_linear_3_357" x1="12" y1="1" x2="12" y2="12" gradientUnits="userSpaceOnUse">
<stop stop-color="#777777"/>
<stop offset="1" stop-color="#444444"/>
</linearGradient>
</defs>
</svg>

<svg xmlns="http://www.w3.org/2000/svg" width="24" height="24" fill="none"><path fill="url(#a)" fill-rule="evenodd" d="M9.623 1.362c.119.002.232-.014.34-.045 1.42-.093 2.839-.09 4.258.011 1.287.1 2.533.38 3.737.838 2.003.824 3.373 2.254 4.111 4.29.422 1.226.672 2.486.748 3.78a27.623 27.623 0 0 1-.114 4.868 11.743 11.743 0 0 1-.883 3.283c-.84 1.821-2.204 3.078-4.088 3.769a15.446 15.446 0 0 1-4.711.815 21.18 21.18 0 0 1-5.39-.407c-3.275-.73-5.294-2.726-6.06-5.988a18.829 18.829 0 0 1-.441-4.46c-.036-1.6.133-3.177.51-4.732.802-3.05 2.738-4.94 5.809-5.67.716-.176 1.44-.293 2.174-.352Z" clip-rule="evenodd"/><path fill="url(#b)" fill-rule="evenodd" d="M15.23 22.78v-3.368c0-.77-.352-1.361-.896-1.741 3.118-.484 5.415-2.06 5.415-5.32 0-1.595-.46-2.873-1.238-3.861.313-1.12.278-2.255-.052-3.403-1.13 0-2.4.613-3.206 1.271-.996-.309-2.096-.465-3.254-.465-1.16 0-2.257.158-3.245.47-.808-.661-2.078-1.277-3.21-1.277-.336 1.169-.372 2.324-.041 3.461-.737.982-1.17 2.239-1.17 3.802 0 3.26 2.241 4.835 5.335 5.319-.545.38-.896.973-.896 1.744 0 0-.32.201-1.134.201-.86 0-1.3-.208-2.094-1.21-.444-.562-1.152-1.235-1.824-1.32a1.009 1.009 0 0 0-.284.002.925.925 0 0 0-.314.108c-.203.112-.028.251.288.502.44.348 1.151.912 1.494 1.918.441 1.298 1.865 1.615 3.06 1.615h.807v1.541a21.61 21.61 0 0 1-1.191-.21c-3.312-.738-5.354-2.757-6.128-6.057a19.046 19.046 0 0 1-.447-4.511 18.491 18.491 0 0 1 .515-4.786c.812-3.086 2.77-4.998 5.877-5.736a13.953 13.953 0 0 1 2.199-.355c.12 0 .234-.014.344-.046a31.627 31.627 0 0 1 4.307.011c1.301.102 2.561.384 3.78.848 2.025.833 3.412 2.28 4.158 4.339.427 1.24.679 2.514.756 3.824a27.931 27.931 0 0 1-.114 4.923 11.88 11.88 0 0 1-.894 3.32c-.85 1.843-2.229 3.114-4.135 3.813-.843.285-1.7.496-2.569.634Z" clip-rule="evenodd"/><defs><radialGradient id="a" cx="0" cy="0" r="1" gradientTransform="matrix(0 21.75 -21.75 0 12 1.25)" gradientUnits="userSpaceOnUse"><stop stop-color="#FAFAFA"/><stop offset="1" stop-color="silver"/></radialGradient><linearGradient id="b" x1="12" x2="12" y1="1" y2="12" gradientUnits="userSpaceOnUse"><stop stop-color="#777"/><stop offset="1" stop-color="#444"/></linearGradient></defs></svg>
